X: 2559
T: Ballykeale
R: jig
M: 6/8
K: Gmixolydian
dc|:AFA Adc|AFA ABc|BGG dGG|BGB dcB|
[1AFA Adc|AFA Aga|bag ^fdc|BGB dcB:|
[2 AFA dAc|A/B/cA Aga|bag ^fdc|BGG GBc||
|:dgg gag|^fde =fdc|dgg bag|^fd^c de^f|
g3 bag|^fde =fga|bag ^fdc|1 BGG GBc:|2 BGB dcB||

